images/item-cow.svg

<svg width="33" height="32" viewBox="0 0 33 32" fill="none" xmlns="http://www.w3.org/2000/svg">
<g clip-path="url(#clip0_63_4752)">
<path d="M27.249 10.2868C27.974 8.80266 28.3877 7.19428 28.4663 5.55457C28.5449 3.91487 28.2868 2.27635 27.7069 0.73373C27.6454 0.545774 27.5283 0.379397 27.3701 0.255243C27.2118 0.131088 27.0193 0.0546191 26.8165 0.0353232C26.6138 0.0160272 26.4096 0.0547534 26.2293 0.146697C26.0491 0.238641 25.9007 0.379756 25.8026 0.552534C24.4811 2.83761 21.6404 6.52192 19.5593 6.69304H19.4656C18.5088 6.51104 17.5374 6.40999 16.5624 6.39105C15.584 6.40976 14.6092 6.51081 13.6489 6.69304H13.576C11.4949 6.53198 8.61254 2.84768 7.28062 0.562601C7.18772 0.379765 7.03967 0.228499 6.85602 0.128794C6.67237 0.0290884 6.46177 -0.0143639 6.25205 0.00417911C6.04233 0.0227221 5.84337 0.102388 5.68144 0.232648C5.51952 0.362908 5.40226 0.537632 5.34517 0.73373C4.75518 2.27092 4.48722 3.90631 4.55689 5.54466C4.62656 7.183 5.03247 8.79157 5.75099 10.2767C3.94041 10.4981 1.64077 11.0619 0.808319 12.4812C0.606372 12.8176 0.5 13.1996 0.5 13.5885C0.5 13.9775 0.606372 14.3595 0.808319 14.6958C1.04668 15.1071 1.40147 15.444 1.83096 15.6669C2.26045 15.8898 2.7468 15.9895 3.23283 15.9541C4.095 15.9371 4.94736 15.7735 5.75099 15.471C5.74385 16.0141 5.78914 16.5567 5.88626 17.0916C6.35074 18.8799 6.9596 20.6301 7.70725 22.3262C7.90495 22.7993 8.12347 23.3328 8.23793 23.6549C7.89611 24.4629 7.62801 25.2982 7.4367 26.1514C7.38729 26.7542 7.46512 27.3605 7.66547 27.9333C7.86582 28.5061 8.1845 29.0335 8.60213 29.4834C10.1109 31.1544 12.7644 32 16.5312 32C20.2981 32 22.9619 31.1544 24.4603 29.4834C24.88 29.0348 25.2 28.5076 25.4005 27.9344C25.6009 27.3613 25.6776 26.7544 25.6257 26.1514C25.4379 25.2985 25.1733 24.4632 24.8349 23.6549C24.9494 23.3328 25.1679 22.8094 25.3552 22.3262C26.1107 20.633 26.7198 18.8822 27.1762 17.0916C27.2812 16.5576 27.33 16.0146 27.3218 15.471C28.0992 15.7646 28.9226 15.928 29.7568 15.9541C30.2441 15.989 30.7317 15.8892 31.1628 15.6664C31.5938 15.4437 31.9506 15.1071 32.1917 14.6958C32.3936 14.3595 32.5 13.9775 32.5 13.5885C32.5 13.1996 32.3936 12.8176 32.1917 12.4812C31.3696 11.1122 29.07 10.5082 27.249 10.2868ZM26.2605 3.60266C26.6358 5.70773 26.2693 7.87373 25.2199 9.75323C24.9591 9.44688 24.6812 9.15452 24.3875 8.87746C23.7994 8.35447 23.1284 7.92623 22.4 7.60909C23.9008 6.48278 25.2043 5.12998 26.2605 3.60266V3.60266ZM6.79155 3.60266C7.83719 5.14061 9.13803 6.50107 10.6416 7.62922C9.91452 7.93761 9.24889 8.3669 8.67497 8.89759C8.37702 9.17376 8.09561 9.46616 7.83211 9.77337C6.7796 7.8876 6.41311 5.71424 6.79155 3.60266V3.60266ZM2.69174 13.7295C2.59809 13.5684 2.6293 13.5181 2.69174 13.4778C2.93107 13.0852 4.13812 12.4712 6.44817 12.2396C6.3337 12.5316 6.22965 12.8235 6.136 13.1255C4.78327 13.7999 2.97269 14.2227 2.69174 13.7295ZM25.1263 16.7494C24.6904 18.4019 24.127 20.0204 23.4405 21.5913C23.1688 22.2068 22.9291 22.835 22.7226 23.4738L22.6601 23.7858L22.7746 24.0677C23.1037 24.8353 23.3716 25.6261 23.5758 26.4333C23.5868 26.7508 23.5327 27.0673 23.4166 27.3644C23.3006 27.6616 23.1248 27.9336 22.8995 28.1647C22.1503 29.0002 20.4437 29.9867 16.5416 29.9867C12.6395 29.9867 10.933 28.9801 10.1838 28.1647C9.73452 27.6944 9.49197 27.0735 9.50742 26.4333C9.71588 25.6261 9.9872 24.8353 10.3191 24.0677L10.4335 23.7858L10.3607 23.4738C10.1653 22.8294 9.92901 22.1974 9.6531 21.5813C8.9547 20.0024 8.38414 18.3735 7.94658 16.7091C7.74813 15.5489 7.84533 14.3593 8.22975 13.2436C8.61417 12.128 9.2742 11.1199 10.1526 10.3069C11.7238 8.77679 15.2825 8.43453 16.5208 8.42447C17.7591 8.4144 21.245 8.76673 22.9099 10.327C23.7936 11.1323 24.4582 12.1361 24.8449 13.2494C25.2315 14.3626 25.3281 15.551 25.1263 16.7091V16.7494ZM30.3291 13.7295C30.0585 14.2127 28.2479 13.7999 26.9576 13.1355C26.8744 12.8336 26.7703 12.5416 26.6559 12.2396C28.9451 12.4712 30.1418 13.0852 30.3707 13.4778C30.4227 13.5181 30.4435 13.5684 30.3499 13.7295H30.3291Z" fill="#2D3440"/>
</g>
<defs>
<clipPath id="clip0_63_4752">
<rect width="32" height="32" fill="white" transform="translate(0.5)"/>
</clipPath>
</defs>
</svg>

<svg xmlns="http://www.w3.org/2000/svg" width="33" height="32" fill="none"><g clip-path="url(#a)"><path fill="#2D3440" d="M27.249 10.287a12.053 12.053 0 0 0 .458-9.553 1.007 1.007 0 0 0-.337-.479 1.07 1.07 0 0 0-1.14-.109c-.18.093-.33.234-.427.407-1.322 2.285-4.163 5.969-6.244 6.14h-.093a17.34 17.34 0 0 0-2.904-.302c-.978.019-1.953.12-2.913.302h-.073c-2.081-.161-4.963-3.845-6.295-6.13a1.022 1.022 0 0 0-.425-.434 1.07 1.07 0 0 0-1.175.104c-.161.13-.279.305-.336.5a11.996 11.996 0 0 0 .406 9.544c-1.81.221-4.11.785-4.943 2.204a2.15 2.15 0 0 0 0 2.215c.239.411.593.748 1.023.97.43.224.916.323 1.402.288a7.575 7.575 0 0 0 2.518-.483 8.449 8.449 0 0 0 .135 1.62 34.445 34.445 0 0 0 1.821 5.235c.198.473.416 1.007.53 1.329-.34.808-.609 1.643-.8 2.496-.05.603.028 1.21.228 1.782.2.573.52 1.1.937 1.55C10.111 31.154 12.764 32 16.532 32c3.766 0 6.43-.846 7.928-2.517.42-.448.74-.975.94-1.549.2-.573.278-1.18.226-1.783a14.586 14.586 0 0 0-.791-2.496c.114-.322.333-.846.52-1.329a32.616 32.616 0 0 0 1.821-5.234 7.79 7.79 0 0 0 .146-1.621c.777.294 1.6.457 2.435.483.487.035.975-.065 1.406-.288.43-.222.788-.559 1.029-.97a2.15 2.15 0 0 0 0-2.215c-.822-1.369-3.122-1.973-4.943-2.194Zm-.988-6.684a9.263 9.263 0 0 1-1.041 6.15c-.26-.306-.539-.598-.832-.876A7.488 7.488 0 0 0 22.4 7.61a17.355 17.355 0 0 0 3.86-4.006Zm-19.47 0a16.959 16.959 0 0 0 3.85 4.026 6.816 6.816 0 0 0-1.966 1.269c-.298.276-.58.568-.843.875a9.283 9.283 0 0 1-1.04-6.17Zm-4.1 10.127c-.093-.162-.062-.212 0-.252.24-.393 1.447-1.007 3.757-1.238-.114.292-.218.583-.312.886-1.353.674-3.163 1.097-3.444.604Zm22.435 3.02c-.436 1.652-.999 3.27-1.686 4.841a19.56 19.56 0 0 0-.717 1.883l-.063.312.115.282c.329.767.597 1.558.8 2.365.012.318-.042.634-.158.931-.116.298-.292.57-.518.8-.749.836-2.455 1.823-6.357 1.823-3.903 0-5.609-1.007-6.358-1.822a2.42 2.42 0 0 1-.677-1.732c.209-.807.48-1.598.812-2.365l.114-.282-.072-.312a15.964 15.964 0 0 0-.708-1.893 32.421 32.421 0 0 1-1.706-4.872 7.004 7.004 0 0 1 .283-3.465 7.202 7.202 0 0 1 1.923-2.937c1.57-1.53 5.13-1.872 6.368-1.883 1.238-.01 4.724.343 6.389 1.903a7.116 7.116 0 0 1 1.935 2.922 6.917 6.917 0 0 1 .281 3.46v.04Zm5.203-3.02c-.27.483-2.081.07-3.371-.595a10.09 10.09 0 0 0-.302-.895c2.29.231 3.486.845 3.715 1.238.052.04.073.09-.021.252h-.02Z"/></g><defs><clipPath id="a"><path fill="#fff" d="M.5 0h32v32H.5z"/></clipPath></defs></svg>
